src/client/public/static/dice.svg

<svg xmlns="http://www.w3.org/2000/svg" width="24" height="24" fill="#6CD4FF">
  <path d="M19.78 3h-8.56C10.55 3 10 3.55 10 4.22V8h6v6h3.78c.67 0 1.22-.55 1.22-1.22V4.22C21 3.55 20.45 3 19.78 3m-7.34 3.67c-.68 0-1.23-.55-1.23-1.23 0-.68.55-1.23 1.23-1.23a1.23 1.23 0 0 1 1.23 1.23c0 .68-.55 1.23-1.23 1.23m6.12 6.11c-.68.01-1.23-.54-1.24-1.22-.01-.68.54-1.23 1.22-1.24.68-.01 1.23.54 1.24 1.24-.01.67-.55 1.21-1.22 1.22m0-6.11c-.68.01-1.23-.54-1.24-1.22-.01-.68.54-1.23 1.22-1.24.68-.01 1.23.54 1.24 1.23 0 .68-.54 1.22-1.22 1.23M4.22 10h8.56A1.22 1.22 0 0 1 14 11.22v8.56c0 .67-.55 1.22-1.22 1.22H4.22C3.55 21 3 20.45 3 19.78v-8.56c0-.67.55-1.22 1.22-1.22m4.28 4.28c-.67 0-1.22.55-1.22 1.22 0 .67.55 1.22 1.22 1.22.67 0 1.22-.55 1.22-1.22a1.22 1.22 0 0 0-1.22-1.22m-3.06-3.06c-.67 0-1.22.55-1.22 1.22a1.22 1.22 0 0 0 1.22 1.22c.67 0 1.22-.55 1.22-1.22 0-.67-.55-1.22-1.22-1.22m6.11 6.11c-.67 0-1.22.55-1.22 1.22 0 .67.55 1.22 1.22 1.22a1.22 1.22 0 0 0 1.22-1.22c0-.67-.54-1.21-1.21-1.22h-.01Z"/>
</svg>

<?xml version="1.0" encoding="UTF-8"?><!DOCTYPE svg PUBLIC "-//W3C//DTD SVG 1.1//EN" "http://www.w3.org/Graphics/SVG/1.1/DTD/svg11.dtd"><svg xmlns="http://www.w3.org/2000/svg" xmlns:xlink="http://www.w3.org/1999/xlink" version="1.1" width="24" height="24" viewBox="0 0 24 24" fill="#6CD4FF"><path d="M19.78,3H11.22C10.55,3 10,3.55 10,4.22V8H16V14H19.78C20.45,14 21,13.45 21,12.78V4.22C21,3.55 20.45,3 19.78,3M12.44,6.67C11.76,6.67 11.21,6.12 11.21,5.44C11.21,4.76 11.76,4.21 12.44,4.21A1.23,1.23 0 0,1 13.67,5.44C13.67,6.12 13.12,6.67 12.44,6.67M18.56,12.78C17.88,12.79 17.33,12.24 17.32,11.56C17.31,10.88 17.86,10.33 18.54,10.32C19.22,10.31 19.77,10.86 19.78,11.56C19.77,12.23 19.23,12.77 18.56,12.78M18.56,6.67C17.88,6.68 17.33,6.13 17.32,5.45C17.31,4.77 17.86,4.22 18.54,4.21C19.22,4.2 19.77,4.75 19.78,5.44C19.78,6.12 19.24,6.66 18.56,6.67M4.22,10H12.78A1.22,1.22 0 0,1 14,11.22V19.78C14,20.45 13.45,21 12.78,21H4.22C3.55,21 3,20.45 3,19.78V11.22C3,10.55 3.55,10 4.22,10M8.5,14.28C7.83,14.28 7.28,14.83 7.28,15.5C7.28,16.17 7.83,16.72 8.5,16.72C9.17,16.72 9.72,16.17 9.72,15.5A1.22,1.22 0 0,0 8.5,14.28M5.44,11.22C4.77,11.22 4.22,11.77 4.22,12.44A1.22,1.22 0 0,0 5.44,13.66C6.11,13.66 6.66,13.11 6.66,12.44V12.44C6.66,11.77 6.11,11.22 5.44,11.22M11.55,17.33C10.88,17.33 10.33,17.88 10.33,18.55C10.33,19.22 10.88,19.77 11.55,19.77A1.22,1.22 0 0,0 12.77,18.55H12.77C12.77,17.88 12.23,17.34 11.56,17.33H11.55Z" /></svg>
